packages/ffe-icons/icons/open/500/md/priority.svg

<svg xmlns="http://www.w3.org/2000/svg" height="24" viewBox="0 -960 960 960" width="24"><path d="M360-111.869q-103.348 0-175.739-72.392Q111.869-256.652 111.869-360v-240q0-103.348 72.392-175.739Q256.652-848.131 360-848.131h240q103.348 0 175.739 72.392Q848.131-703.348 848.131-600v240q0 103.348-72.392 175.739Q703.348-111.869 600-111.869H360Zm79.283-322.761-58.805-58.805q-11.717-11.717-29.195-11.717-17.479 0-29.196 11.717-11.717 11.718-11.717 29.315 0 17.598 11.717 29.316l85.13 85.369q13.674 13.674 32.066 13.674 18.391 0 32.065-13.674l181.369-181.369q11.718-11.718 11.718-29.316 0-17.597-11.718-29.315-11.717-11.717-29.315-11.717t-29.315 11.717L439.283-434.63ZM360-202.87h240q65.043 0 111.087-46.043Q757.13-294.957 757.13-360v-240q0-65.043-46.043-111.087Q665.043-757.13 600-757.13H360q-65.043 0-111.087 46.043Q202.87-665.043 202.87-600v240q0 65.043 46.043 111.087Q294.957-202.87 360-202.87ZM480-480Z"/></svg>

<svg xmlns="http://www.w3.org/2000/svg" height="24" viewBox="0 -960 960 960" width="24"><path d="M360-111.87q-103.35 0-175.74-72.39-72.39-72.39-72.39-175.74v-240q0-103.35 72.39-175.74 72.39-72.39 175.74-72.39h240q103.35 0 175.74 72.39 72.39 72.39 72.39 175.74v240q0 103.35-72.39 175.74-72.39 72.39-175.74 72.39H360Zm79.28-322.76-58.8-58.8q-11.72-11.72-29.2-11.72-17.48 0-29.19 11.72-11.72 11.71-11.72 29.31 0 17.6 11.72 29.32l85.13 85.37q13.67 13.67 32.06 13.67t32.07-13.67L652.72-530.8q11.71-11.72 11.71-29.32t-11.71-29.31Q641-601.15 623.4-601.15t-29.31 11.72l-154.81 154.8ZM360-202.87h240q65.04 0 111.09-46.04 46.04-46.05 46.04-111.09v-240q0-65.04-46.04-111.09-46.05-46.04-111.09-46.04H360q-65.04 0-111.09 46.04-46.04 46.05-46.04 111.09v240q0 65.04 46.04 111.09 46.05 46.04 111.09 46.04ZM480-480Z"/></svg>
